public/img/social/facebook.svg

<svg width="38" height="40" viewBox="0 0 38 40" fill="none" xmlns="http://www.w3.org/2000/svg">
<path d="M29.2459 9.28326H9.53158C9.05747 9.28326 8.67444 9.6663 8.67444 10.1404V29.8547C8.67444 30.3288 9.05747 30.7118 9.53158 30.7118H29.2459C29.72 30.7118 30.103 30.3288 30.103 29.8547V10.1404C30.103 9.6663 29.72 9.28326 29.2459 9.28326ZM28.3887 28.9976H23.4575V22.4136H26.2432L26.661 19.1806H23.4575V17.1154C23.4575 16.1779 23.7173 15.5404 25.0593 15.5404H26.7709V12.6476C26.4735 12.6074 25.4584 12.519 24.2744 12.519C21.8048 12.519 20.1146 14.027 20.1146 16.794V19.1779H17.3235V22.4109H20.1173V28.9976H10.3887V10.9976H28.3887V28.9976Z" fill="#0495BC"/>
</svg>

<svg xmlns="http://www.w3.org/2000/svg" width="38" height="40" fill="none"><path fill="#0495BC" d="M29.246 9.283H9.532a.856.856 0 0 0-.858.857v19.715c0 .474.383.857.858.857h19.714a.856.856 0 0 0 .857-.857V10.14a.856.856 0 0 0-.857-.857Zm-.857 19.715h-4.931v-6.584h2.785l.418-3.233h-3.204v-2.066c0-.937.26-1.575 1.602-1.575h1.712v-2.892a22.602 22.602 0 0 0-2.497-.129c-2.47 0-4.16 1.508-4.16 4.275v2.384h-2.79v3.233h2.793v6.587H10.39v-18h18v18Z"/></svg>
